X: 1194
T: An Culyek Hos
R: jig
M: 6/8
K: Bminor
F|B2 c d2 d|edc B2 F|d2 e f2 g|fec dBF|
B2 c dcd|edc B2 F|d2 e f2 g|fec B3||
B2 e dcB|dcB d2 B|B2 c dcB|d2 e f3|
def fgf|edc dcB|def fgf|edc B2||

